azure-docs/notebooks.svg

<svg xmlns="http://www.w3.org/2000/svg" viewBox="0 0 36.771 50"><defs><style>.cls-7{isolation:isolate;fill:#fff;opacity:.65}</style><clipPath id="clip-path" transform="translate(-6.614)"><path fill="none" d="M0 0h50v50H0z"/></clipPath></defs><g id="Layer_2" data-name="Layer 2"><g clip-path="url(#clip-path)" id="Layer_1-2" data-name="Layer 1"><path d="M21.076 50L16.7 45.964 12.22 50V34.753h8.856z" transform="translate(-6.614)" fill="#f58b1f"/><path d="M41.7 38.229h1.682V0H9.978C8.856.112 6.614 2.443 6.614 3.139v36.883a2.01 2.01 0 0 0 2.018 2.018h30.494v-.672z" transform="translate(-6.614)" fill="#0072c6"/><path d="M11.435 1.794a2.457 2.457 0 0 0-2.13.9C7.512 4.26 9.754 4.26 10.539 4.26h28.587v37.22l2.574-3.251V1.794z" transform="translate(-6.614)" fill="#e5e5e5"/><path d="M39.125 41.48l2.575-3.251V1.794L39.125 4.26z" transform="translate(-6.614)" style="isolation:isolate" fill="#a0a1a2" opacity=".5"/><path class="cls-7" d="M9.8 7.588v30.977h6.574v-21.5zM35.762 38.565V7.511h-6.574V27.5z" transform="translate(-6.614)"/><path d="M35.762 38.565h-7.688L9.8 7.511h7.911z" transform="translate(-6.614)" fill="#fff"/></g></g></svg>

<svg xmlns="http://www.w3.org/2000/svg" xmlns:xlink="http://www.w3.org/1999/xlink" viewBox="0 0 36.771 50"><defs><style>.cls-1{fill:none;}.cls-2{clip-path:url(#clip-path);}.cls-3{fill:#f58b1f;}.cls-4{fill:#0072c6;}.cls-5{fill:#e5e5e5;}.cls-6{fill:#a0a1a2;opacity:0.5;}.cls-6,.cls-7{isolation:isolate;}.cls-7,.cls-8{fill:#fff;}.cls-7{opacity:0.65;}</style><clipPath id="clip-path" transform="translate(-6.614)"><rect class="cls-1" width="50" height="50"/></clipPath></defs><title>Asset 1</title><g id="Layer_2" data-name="Layer 2"><g id="Layer_1-2" data-name="Layer 1"><g class="cls-2"><path class="cls-3" d="M21.076,50,16.7,45.964,12.22,50V34.753h8.856Z" transform="translate(-6.614)"/><path class="cls-4" d="M41.7,38.229h1.682V0H9.978C8.856.112,6.614,2.443,6.614,3.139V40.022A2.01,2.01,0,0,0,8.632,42.04H39.126v-.672Z" transform="translate(-6.614)"/><path class="cls-5" d="M11.435,1.794a2.457,2.457,0,0,0-2.13.9C7.512,4.26,9.754,4.26,10.539,4.26H39.126V41.48L41.7,38.229V1.794Z" transform="translate(-6.614)"/><path class="cls-6" d="M39.125,41.48,41.7,38.229V1.794L39.125,4.26Z" transform="translate(-6.614)"/><path class="cls-7" d="M9.8,7.588V38.565h6.574v-21.5Z" transform="translate(-6.614)"/><path class="cls-7" d="M35.762,38.565V7.511H29.188V27.5Z" transform="translate(-6.614)"/><path class="cls-8" d="M35.762,38.565H28.074L9.8,7.511h7.911Z" transform="translate(-6.614)"/></g></g></g></svg>
